public/textures/WoddenFloor/OnlineLUTCreator.CUBE
#Generated by wwww.onlinelutcreator.com 
LUT_3D_SIZE 8 
DOMAIN_MIN 0.000000 0.000000 0.000000
DOMAIN_MAX 0.903226 0.903226 0.903226
0.015686 0.000000 0.000000
0.003922 0.007843 0.000000
0.074510 0.011765 0.050980
0.168627 0.000000 0.031373
0.325490 0.000000 0.011765
0.494118 0.000000 0.011765
0.619608 0.011765 0.082353
0.843137 0.000000 0.000000
0.086275 0.015686 0.000000
0.019608 0.027451 0.015686
0.094118 0.070588 0.015686
0.200000 0.062745 0.000000
0.360784 0.066667 0.000000
0.478431 0.058824 0.027451
0.741176 0.000000 0.050980
0.968627 0.000000 0.015686
0.031373 0.054902 0.047059
0.023529 0.066667 0.050980
0.109804 0.109804 0.000000
0.196078 0.078431 0.000000
0.262745 0.125490 0.000000
0.380392 0.109804 0.000000
0.654902 0.098039 0.000000
0.874510 0.137255 0.000000
0.156863 0.152941 0.031373
0.066667 0.149020 0.027451
0.109804 0.164706 0.027451
0.235294 0.176471 0.015686
0.384314 0.278431 0.070588
0.603922 0.239216 0.000000
0.788235 0.286275 0.000000
0.945098 0.305882 0.011765
0.011765 0.219608 0.000000
0.000000 0.231373 0.003922
0.019608 0.231373 0.027451
0.129412 0.227451 0.011765
0.282353 0.266667 0.000000
0.482353 0.329412 0.019608
0.811765 0.419608 0.000000
0.956863 0.466667 0.043137
0.101961 0.349020 0.031373
0.000000 0.329412 0.011765
0.000000 0.309804 0.007843
0.133333 0.337255 0.011765
0.301961 0.431373 0.000000
0.627451 0.541176 0.003922
0.941176 0.658824 0.000000
1.000000 0.627451 0.003922
0.152941 0.619608 0.290196
0.145098 0.631373 0.294118
0.325490 0.607843 0.286275
0.458824 0.623529 0.286275
0.811765 0.725490 0.329412
0.941176 0.713725 0.294118
0.937255 0.654902 0.270588
1.000000 0.670588 0.282353
0.576471 0.862745 0.400000
0.466667 0.854902 0.388235
0.466667 0.850980 0.376471
0.596078 0.866667 0.376471
0.862745 0.890196 0.513725
0.964706 0.945098 0.588235
0.988235 0.901961 0.568627
1.000000 0.866667 0.564706
0.000000 0.011765 0.000000
0.003922 0.007843 0.000000
0.039216 0.031373 0.050980
0.117647 0.019608 0.003922
0.203922 0.070588 0.000000
0.352941 0.062745 0.011765
0.482353 0.019608 0.019608
0.611765 0.011765 0.000000
0.094118 0.039216 0.003922
0.000000 0.058824 0.000000
0.031373 0.035294 0.000000
0.137255 0.090196 0.000000
0.266667 0.117647 0.000000
0.368627 0.164706 0.011765
0.490196 0.137255 0.043137
0.713725 0.152941 0.000000
0.000000 0.090196 0.062745
0.000000 0.090196 0.066667
0.094118 0.113725 0.000000
0.168627 0.098039 0.000000
0.305882 0.098039 0.035294
0.427451 0.070588 0.000000
0.615686 0.043137 0.000000
0.894118 0.074510 0.058824
0.176471 0.164706 0.105882
0.062745 0.164706 0.066667
0.101961 0.152941 0.074510
0.188235 0.184314 0.062745
0.333333 0.235294 0.015686
0.549020 0.235294 0.000000
0.788235 0.274510 0.000000
0.949020 0.298039 0.000000
0.000000 0.250980 0.031373
0.011765 0.247059 0.035294
0.031373 0.235294 0.086275
0.129412 0.235294 0.058824
0.329412 0.262745 0.000000
0.541176 0.341176 0.000000
0.803922 0.423529 0.000000
1.000000 0.458824 0.086275
0.125490 0.356863 0.043137
0.000000 0.341176 0.000000
0.031373 0.337255 0.000000
0.121569 0.364706 0.000000
0.309804 0.403922 0.019608
0.611765 0.525490 0.000000
0.921569 0.650980 0.039216
0.984314 0.627451 0.035294
0.211765 0.611765 0.321569
0.219608 0.611765 0.325490
0.356863 0.603922 0.329412
0.486275 0.631373 0.329412
0.772549 0.745098 0.439216
0.909804 0.741176 0.380392
0.964706 0.674510 0.247059
1.000000 0.701961 0.286275
0.600000 0.843137 0.509804
0.482353 0.839216 0.466667
0.498039 0.827451 0.458824
0.619608 0.874510 0.474510
0.862745 0.933333 0.541176
0.941176 0.941176 0.690196
1.000000 0.886275 0.619608
1.000000 0.850980 0.596078
0.000000 0.019608 0.019608
0.000000 0.031373 0.023529
0.000000 0.023529 0.062745
0.125490 0.019608 0.054902
0.235294 0.035294 0.031373
0.372549 0.011765 0.031373
0.454902 0.000000 0.000000
0.635294 0.011765 0.000000
0.090196 0.031373 0.000000
0.003922 0.047059 0.000000
0.035294 0.094118 0.003922
0.121569 0.101961 0.000000
0.294118 0.058824 0.000000
0.415686 0.133333 0.047059
0.474510 0.098039 0.003922
0.737255 0.094118 0.000000
0.027451 0.086275 0.113725
0.023529 0.098039 0.121569
0.074510 0.121569 0.082353
0.176471 0.090196 0.047059
0.317647 0.078431 0.109804
0.443137 0.054902 0.035294
0.556863 0.023529 0.000000
0.807843 0.003922 0.023529
0.192157 0.141176 0.066667
0.094118 0.141176 0.086275
0.109804 0.176471 0.113725
0.200000 0.180392 0.105882
0.317647 0.235294 0.050980
0.517647 0.243137 0.000000
0.690196 0.250980 0.000000
0.917647 0.286275 0.011765
0.019608 0.247059 0.086275
0.011765 0.258824 0.090196
0.019608 0.258824 0.094118
0.117647 0.223529 0.062745
0.333333 0.278431 0.101961
0.556863 0.352941 0.066667
0.752941 0.447059 0.000000
0.941176 0.423529 0.000000
0.176471 0.337255 0.027451
0.054902 0.321569 0.027451
0.066667 0.341176 0.066667
0.156863 0.341176 0.058824
0.282353 0.403922 0.098039
0.600000 0.525490 0.125490
0.890196 0.611765 0.007843
1.000000 0.611765 0.062745
0.207843 0.694118 0.419608
0.203922 0.701961 0.423529
0.384314 0.643137 0.494118
0.509804 0.635294 0.482353
0.788235 0.760784 0.549020
0.909804 0.737255 0.450980
0.949020 0.682353 0.435294
1.000000 0.690196 0.458824
0.647059 0.835294 0.498039
0.537255 0.827451 0.517647
0.552941 0.854902 0.549020
0.635294 0.858824 0.541176
0.882353 0.886275 0.611765
1.000000 0.945098 0.698039
0.960784 0.952941 0.658824
1.000000 0.913725 0.662745
0.031373 0.035294 0.050980
0.039216 0.043137 0.058824
0.035294 0.023529 0.129412
0.141176 0.023529 0.117647
0.211765 0.050980 0.168627
0.360784 0.047059 0.152941
0.458824 0.000000 0.172549
0.611765 0.015686 0.105882
0.129412 0.047059 0.043137
0.035294 0.050980 0.062745
0.027451 0.105882 0.070588
0.133333 0.105882 0.074510
0.274510 0.098039 0.109804
0.388235 0.098039 0.094118
0.458824 0.078431 0.105882
0.666667 0.019608 0.035294
0.000000 0.129412 0.250980
0.000000 0.125490 0.250980
0.019608 0.113725 0.223529
0.184314 0.086275 0.211765
0.258824 0.141176 0.235294
0.372549 0.098039 0.192157
0.549020 0.003922 0.117647
0.764706 0.000000 0.117647
0.160784 0.168627 0.164706
0.058824 0.176471 0.184314
0.117647 0.196078 0.200000
0.223529 0.188235 0.200000
0.368627 0.203922 0.156863
0.466667 0.200000 0.125490
0.749020 0.176471 0.117647
0.941176 0.196078 0.094118
0.000000 0.290196 0.188235
0.011765 0.301961 0.203922
0.000000 0.337255 0.203922
0.156863 0.290196 0.196078
0.341176 0.282353 0.192157
0.568627 0.356863 0.254902
0.764706 0.439216 0.164706
0.925490 0.431373 0.203922
0.125490 0.349020 0.141176
0.031373 0.352941 0.160784
0.094118 0.380392 0.172549
0.192157 0.376471 0.172549
0.364706 0.411765 0.160784
0.603922 0.537255 0.262745
0.905882 0.607843 0.129412
1.000000 0.611765 0.074510
0.078431 0.737255 0.600000
0.129412 0.760784 0.631373
0.360784 0.756863 0.600000
0.552941 0.713725 0.596078
0.792157 0.737255 0.631373
0.952941 0.737255 0.619608
0.964706 0.694118 0.635294
1.000000 0.717647 0.643137
0.725490 0.870588 0.666667
0.627451 0.870588 0.678431
0.576471 0.882353 0.647059
0.682353 0.882353 0.658824
0.835294 0.898039 0.721569
0.980392 0.925490 0.733333
0.941176 0.949020 0.894118
1.000000 0.905882 0.796078
0.000000 0.043137 0.219608
0.003922 0.047059 0.223529
0.019608 0.007843 0.223529
0.133333 0.027451 0.243137
0.266667 0.011765 0.262745
0.321569 0.054902 0.254902
0.466667 0.027451 0.223529
0.541176 0.003922 0.207843
0.164706 0.007843 0.109804
0.011765 0.098039 0.180392
0.050980 0.058824 0.207843
0.121569 0.105882 0.211765
0.266667 0.105882 0.270588
0.356863 0.113725 0.258824
0.423529 0.066667 0.227451
0.623529 0.000000 0.211765
0.000000 0.117647 0.325490
0.000000 0.121569 0.329412
0.000000 0.105882 0.317647
0.137255 0.098039 0.333333
0.309804 0.074510 0.325490
0.407843 0.082353 0.301961
0.478431 0.070588 0.309804
0.647059 0.054902 0.333333
0.176471 0.168627 0.254902
0.000000 0.215686 0.286275
0.007843 0.211765 0.294118
0.172549 0.176471 0.286275
0.337255 0.192157 0.258824
0.419608 0.192157 0.239216
0.627451 0.172549 0.223529
0.835294 0.168627 0.270588
0.019608 0.329412 0.305882
0.027451 0.337255 0.313725
0.000000 0.364706 0.337255
0.121569 0.349020 0.352941
0.349020 0.329412 0.345098
0.517647 0.352941 0.356863
0.760784 0.349020 0.333333
0.894118 0.352941 0.345098
0.113725 0.411765 0.258824
0.000000 0.498039 0.321569
0.019608 0.537255 0.345098
0.168627 0.494118 0.321569
0.368627 0.435294 0.258824
0.580392 0.572549 0.380392
0.901961 0.596078 0.337255
1.000000 0.600000 0.352941
0.000000 0.713725 0.733333
0.000000 0.717647 0.737255
0.262745 0.717647 0.682353
0.482353 0.725490 0.705882
0.721569 0.713725 0.717647
0.894118 0.745098 0.741176
0.980392 0.737255 0.780392
0.972549 0.756863 0.768627
0.854902 0.831373 0.768627
0.705882 0.933333 0.847059
0.717647 0.890196 0.800000
0.768627 0.913725 0.792157
0.815686 0.894118 0.796078
0.937255 0.933333 0.823529
0.929412 0.945098 0.890196
1.000000 0.894118 0.862745
0.019608 0.054902 0.349020
0.023529 0.058824 0.352941
0.007843 0.035294 0.301961
0.062745 0.019608 0.396078
0.274510 0.027451 0.447059
0.392157 0.000000 0.403922
0.450980 0.003922 0.376471
0.537255 0.003922 0.337255
0.156863 0.058824 0.282353
0.003922 0.090196 0.317647
0.000000 0.109804 0.356863
0.066667 0.101961 0.372549
0.262745 0.105882 0.352941
0.364706 0.074510 0.313725
0.458824 0.098039 0.360784
0.560784 0.066667 0.356863
0.000000 0.125490 0.443137
0.000000 0.129412 0.447059
0.000000 0.117647 0.501961
0.027451 0.094118 0.509804
0.278431 0.035294 0.454902
0.419608 0.023529 0.439216
0.611765 0.000000 0.423529
0.752941 0.050980 0.450980
0.168627 0.160784 0.352941
0.003922 0.188235 0.392157
0.007843 0.200000 0.419608
0.070588 0.188235 0.431373
0.282353 0.145098 0.403922
0.454902 0.188235 0.427451
0.650980 0.196078 0.388235
0.819608 0.235294 0.454902
0.000000 0.380392 0.454902
0.000000 0.384314 0.458824
0.035294 0.384314 0.517647
0.000000 0.376471 0.443137
0.313725 0.290196 0.470588
0.498039 0.313725 0.494118
0.733333 0.356863 0.545098
0.874510 0.419608 0.572549
0.164706 0.509804 0.423529
0.003922 0.537255 0.458824
0.000000 0.603922 0.505882
0.035294 0.596078 0.525490
0.435294 0.525490 0.549020
0.615686 0.580392 0.592157
0.905882 0.596078 0.576471
1.000000 0.603922 0.607843
0.054902 0.643137 0.843137
0.058824 0.647059 0.847059
0.031373 0.670588 0.807843
0.349020 0.674510 0.886275
0.709804 0.717647 0.878431
0.886275 0.717647 0.886275
0.937255 0.768627 0.878431
1.000000 0.780392 0.850980
0.737255 0.858824 0.839216
0.572549 0.886275 0.874510
0.600000 0.933333 0.921569
0.650980 0.929412 0.945098
0.827451 0.925490 0.945098
0.956863 0.921569 0.925490
0.949020 0.972549 0.925490
1.000000 0.921569 0.894118
0.000000 0.078431 0.572549
0.000000 0.078431 0.572549
0.000000 0.117647 0.529412
0.000000 0.019608 0.592157
0.168627 0.039216 0.560784
0.364706 0.011765 0.537255
0.439216 0.015686 0.486275
0.600000 0.007843 0.450980
0.086275 0.078431 0.498039
0.019608 0.109804 0.549020
0.000000 0.113725 0.545098
0.007843 0.094118 0.564706
0.258824 0.007843 0.592157
0.403922 0.000000 0.564706
0.486275 0.000000 0.458824
0.580392 0.007843 0.443137
0.019608 0.105882 0.643137
0.019608 0.105882 0.643137
0.066667 0.098039 0.658824
0.027451 0.062745 0.662745
0.239216 0.000000 0.654902
0.458824 0.000000 0.643137
0.682353 0.015686 0.670588
0.760784 0.003922 0.603922
0.066667 0.125490 0.529412
0.000000 0.156863 0.568627
0.000000 0.192157 0.517647
0.007843 0.192157 0.552941
0.274510 0.125490 0.603922
0.490196 0.105882 0.588235
0.694118 0.098039 0.572549
0.843137 0.184314 0.619608
0.000000 0.415686 0.650980
0.000000 0.415686 0.650980
0.062745 0.384314 0.776471
0.043137 0.294118 0.686275
0.180392 0.243137 0.627451
0.439216 0.274510 0.666667
0.776471 0.298039 0.725490
0.886275 0.384314 0.725490
0.074510 0.482353 0.596078
0.047059 0.592157 0.705882
0.000000 0.611765 0.709804
0.000000 0.572549 0.694118
0.062745 0.541176 0.584314
0.490196 0.556863 0.666667
0.803922 0.607843 0.752941
0.921569 0.650980 0.760784
0.000000 0.643137 1.000000
0.000000 0.643137 1.000000
0.000000 0.713725 0.917647
0.078431 0.694118 0.956863
0.537255 0.709804 0.949020
0.792157 0.717647 0.968627
0.964706 0.737255 0.968627
0.996078 0.729412 0.890196
0.588235 0.925490 1.000000
0.360784 0.866667 0.988235
0.454902 0.850980 0.929412
0.549020 0.894118 0.988235
0.847059 0.827451 1.000000
0.909804 0.862745 1.000000
0.976471 0.921569 1.000000
1.000000 0.901961 0.960784
0.019608 0.062745 0.768627
0.019608 0.062745 0.768627
0.007843 0.039216 0.803922
0.000000 0.000000 0.819608
0.098039 0.000000 0.701961
0.356863 0.000000 0.662745
0.482353 0.000000 0.603922
0.650980 0.023529 0.611765
0.007843 0.066667 0.698039
0.007843 0.101961 0.768627
0.000000 0.149020 0.784314
0.000000 0.054902 0.749020
0.031373 0.011765 0.717647
0.341176 0.007843 0.717647
0.470588 0.027451 0.584314
0.623529 0.066667 0.631373
0.000000 0.129412 0.807843
0.000000 0.129412 0.807843
0.007843 0.082353 0.780392
0.050980 0.062745 0.756863
0.000000 0.019608 0.768627
0.380392 0.000000 0.756863
0.627451 0.023529 0.839216
0.823529 0.000000 0.807843
0.078431 0.117647 0.701961
0.000000 0.145098 0.737255
0.047059 0.168627 0.717647
0.000000 0.176471 0.725490
0.066667 0.129412 0.705882
0.403922 0.062745 0.674510
0.643137 0.000000 0.788235
0.807843 0.023529 0.858824
0.003922 0.396078 0.843137
0.003922 0.396078 0.843137
0.000000 0.376471 0.890196
0.000000 0.356863 0.796078
0.000000 0.278431 0.811765
0.341176 0.250980 0.800000
0.662745 0.258824 0.819608
0.882353 0.305882 0.862745
0.066667 0.368627 0.713725
0.050980 0.545098 0.874510
0.011765 0.552941 0.901961
0.000000 0.537255 0.886275
0.003922 0.443137 0.827451
0.333333 0.443137 0.835294
0.803922 0.545098 0.890196
0.921569 0.576471 0.917647
0.023529 0.639216 1.000000
0.023529 0.639216 1.000000
0.000000 0.694118 0.960784
0.247059 0.658824 0.984314
0.619608 0.647059 0.964706
0.854902 0.658824 0.937255
0.960784 0.678431 1.000000
0.976471 0.678431 0.960784
0.611765 0.909804 1.000000
0.349020 0.839216 0.964706
0.407843 0.862745 0.921569
0.545098 0.882353 0.988235
0.709804 0.898039 1.000000
0.850980 0.894118 0.980392
0.905882 0.933333 0.956863
0.980392 0.937255 0.952941
