public/textures/WoddenFloor/OnlineLUTCreator.CUBE
#Generated by wwww.onlinelutcreator.com 
LUT_3D_SIZE 32 
0.015686 0.000000 0.000000
0.011765 0.000000 0.000000
0.000000 0.003922 0.000000
0.000000 0.003922 0.000000
0.003922 0.007843 0.000000
0.015686 0.003922 0.000000
0.027451 0.000000 0.000000
0.035294 0.000000 0.000000
0.074510 0.011765 0.050980
0.082353 0.003922 0.039216
0.098039 0.000000 0.031373
0.129412 0.000000 0.027451
0.168627 0.000000 0.031373
0.203922 0.000000 0.035294
0.243137 0.000000 0.043137
0.262745 0.003922 0.050980
0.325490 0.000000 0.011765
0.360784 0.000000 0.027451
0.415686 0.007843 0.035294
0.462745 0.011765 0.039216
0.494118 0.000000 0.011765
0.533333 0.000000 0.000000
0.564706 0.000000 0.000000
0.588235 0.000000 0.000000
0.619608 0.011765 0.082353
0.643137 0.000000 0.058824
0.745098 0.011765 0.078431
0.796078 0.000000 0.031373
0.843137 0.000000 0.000000
0.878431 0.000000 0.000000
1.000000 0.066667 0.027451
0.949020 0.007843 0.000000
0.070588 0.000000 0.000000
0.023529 0.003922 0.000000
0.000000 0.007843 0.000000
0.015686 0.015686 0.007843
0.043137 0.003922 0.007843
0.054902 0.000000 0.000000
0.043137 0.000000 0.000000
0.039216 0.011765 0.000000
0.054902 0.011765 0.003922
0.070588 0.011765 0.000000
0.094118 0.011765 0.000000
0.133333 0.011765 0.000000
0.168627 0.007843 0.000000
0.203922 0.011765 0.000000
0.235294 0.011765 0.000000
0.247059 0.011765 0.000000
0.274510 0.007843 0.003922
0.305882 0.015686 0.011765
0.345098 0.027451 0.015686
0.392157 0.027451 0.007843
0.427451 0.015686 0.000000
0.474510 0.015686 0.000000
0.513725 0.027451 0.000000
0.552941 0.043137 0.000000
0.674510 0.000000 0.054902
0.713725 0.015686 0.070588
0.764706 0.011765 0.054902
0.823529 0.000000 0.003922
0.898039 0.000000 0.000000
0.968627 0.000000 0.000000
0.980392 0.027451 0.000000
0.956863 0.054902 0.000000
0.058824 0.000000 0.000000
0.007843 0.007843 0.000000
0.000000 0.019608 0.000000
0.000000 0.035294 0.011765
0.023529 0.023529 0.015686
0.043137 0.003922 0.000000
0.043137 0.007843 0.000000
0.054902 0.027451 0.000000
0.090196 0.031373 0.050980
0.105882 0.031373 0.047059
0.129412 0.031373 0.043137
0.164706 0.031373 0.035294
0.203922 0.031373 0.035294
0.239216 0.027451 0.019608
0.262745 0.027451 0.023529
0.278431 0.027451 0.019608
0.305882 0.019608 0.000000
0.325490 0.015686 0.000000
0.360784 0.015686 0.000000
0.407843 0.015686 0.023529
0.458824 0.015686 0.039216
0.501961 0.007843 0.050980
0.537255 0.007843 0.062745
0.556863 0.003922 0.070588
0.682353 0.000000 0.066667
0.709804 0.000000 0.066667
0.768627 0.000000 0.062745
0.847059 0.000000 0.035294
0.933333 0.000000 0.000000
0.976471 0.000000 0.000000
1.000000 0.015686 0.000000
1.000000 0.050980 0.003922
0.078431 0.003922 0.000000
0.015686 0.000000 0.000000
0.000000 0.015686 0.000000
0.000000 0.027451 0.000000
0.035294 0.019608 0.007843
0.058824 0.003922 0.000000
0.050980 0.000000 0.000000
0.039216 0.003922 0.000000
0.078431 0.039216 0.000000
0.090196 0.035294 0.000000
0.117647 0.031373 0.000000
0.149020 0.035294 0.000000
0.196078 0.043137 0.000000
0.247059 0.054902 0.000000
0.286275 0.070588 0.000000
0.309804 0.082353 0.003922
0.282353 0.074510 0.000000
0.305882 0.066667 0.000000
0.349020 0.058824 0.000000
0.403922 0.047059 0.000000
0.458824 0.035294 0.000000
0.513725 0.023529 0.000000
0.556863 0.015686 0.007843
0.580392 0.007843 0.011765
0.686275 0.011765 0.011765
0.698039 0.011765 0.000000
0.749020 0.007843 0.000000
0.835294 0.000000 0.000000
0.921569 0.000000 0.000000
0.968627 0.007843 0.000000
0.956863 0.035294 0.000000
0.933333 0.054902 0.000000
0.086275 0.015686 0.000000
0.031373 0.019608 0.000000
0.000000 0.027451 0.000000
0.000000 0.027451 0.000000
0.019608 0.027451 0.015686
0.054902 0.035294 0.023529
0.054902 0.035294 0.011765
0.039216 0.039216 0.000000
0.094118 0.070588 0.015686
0.101961 0.066667 0.007843
0.121569 0.058824 0.000000
0.156863 0.054902 0.000000
0.200000 0.062745 0.000000
0.247059 0.070588 0.000000
0.282353 0.086275 0.000000
0.305882 0.094118 0.000000
0.360784 0.066667 0.000000
0.372549 0.066667 0.000000
0.400000 0.062745 0.000000
0.439216 0.062745 0.015686
0.478431 0.058824 0.027451
0.513725 0.050980 0.035294
0.541176 0.047059 0.050980
0.556863 0.047059 0.054902
0.741176 0.000000 0.050980
0.749020 0.000000 0.043137
0.803922 0.000000 0.039216
0.886275 0.000000 0.031373
0.968627 0.000000 0.015686
1.000000 0.003922 0.000000
1.000000 0.062745 0.007843
1.000000 0.121569 0.031373
0.098039 0.023529 0.000000
0.043137 0.027451 0.000000
0.000000 0.031373 0.000000
0.000000 0.039216 0.000000
0.015686 0.043137 0.015686
0.043137 0.047059 0.023529
0.043137 0.054902 0.011765
0.027451 0.058824 0.000000
0.074510 0.090196 0.000000
0.086275 0.086275 0.000000
0.105882 0.086275 0.000000
0.145098 0.082353 0.000000
0.188235 0.086275 0.000000
0.235294 0.101961 0.000000
0.274510 0.113725 0.003922
0.301961 0.125490 0.011765
0.301961 0.098039 0.000000
0.329412 0.094118 0.000000
0.376471 0.090196 0.000000
0.435294 0.082353 0.000000
0.494118 0.078431 0.000000
0.552941 0.070588 0.000000
0.600000 0.066667 0.003922
0.627451 0.066667 0.011765
0.713725 0.050980 0.062745
0.725490 0.019608 0.031373
0.788235 0.019608 0.023529
0.835294 0.003922 0.000000
0.890196 0.027451 0.000000
0.949020 0.086275 0.000000
0.956863 0.113725 0.000000
0.980392 0.156863 0.011765
0.152941 0.011765 0.000000
0.054902 0.054902 0.000000
0.007843 0.070588 0.000000
0.047059 0.043137 0.000000
0.066667 0.039216 0.000000
0.043137 0.062745 0.000000
0.047059 0.082353 0.000000
0.094118 0.070588 0.000000
0.141176 0.074510 0.035294
0.145098 0.074510 0.035294
0.149020 0.074510 0.019608
0.176471 0.074510 0.007843
0.207843 0.078431 0.003922
0.262745 0.086275 0.011765
0.301961 0.098039 0.015686
0.329412 0.101961 0.023529
0.364706 0.105882 0.000000
0.376471 0.105882 0.000000
0.400000 0.105882 0.000000
0.435294 0.105882 0.000000
0.470588 0.109804 0.019608
0.501961 0.113725 0.031373
0.525490 0.113725 0.039216
0.533333 0.113725 0.043137
0.721569 0.109804 0.050980
0.737255 0.082353 0.019608
0.796078 0.070588 0.000000
0.847059 0.054902 0.000000
0.921569 0.094118 0.000000
0.964706 0.129412 0.000000
0.960784 0.141176 0.000000
1.000000 0.215686 0.031373
0.156863 0.035294 0.023529
0.058824 0.074510 0.015686
0.011765 0.086275 0.007843
0.043137 0.058824 0.000000
0.062745 0.047059 0.000000
0.035294 0.070588 0.003922
0.035294 0.078431 0.011765
0.078431 0.062745 0.015686
0.105882 0.121569 0.000000
0.105882 0.121569 0.000000
0.113725 0.117647 0.000000
0.133333 0.113725 0.000000
0.168627 0.117647 0.000000
0.215686 0.121569 0.000000
0.258824 0.133333 0.000000
0.282353 0.137255 0.000000
0.368627 0.113725 0.000000
0.384314 0.117647 0.000000
0.407843 0.117647 0.000000
0.443137 0.121569 0.000000
0.470588 0.125490 0.000000
0.505882 0.125490 0.000000
0.533333 0.129412 0.000000
0.541176 0.129412 0.003922
0.741176 0.086275 0.000000
0.772549 0.090196 0.000000
0.831373 0.090196 0.000000
0.890196 0.082353 0.000000
0.941176 0.074510 0.003922
0.976471 0.066667 0.011765
1.000000 0.054902 0.011765
1.000000 0.054902 0.011765
0.031373 0.054902 0.047059
0.023529 0.058824 0.047059
0.019608 0.062745 0.047059
0.019608 0.066667 0.050980
0.023529 0.066667 0.050980
0.039216 0.062745 0.054902
0.050980 0.058824 0.054902
0.058824 0.050980 0.054902
0.109804 0.109804 0.000000
0.117647 0.101961 0.000000
0.137255 0.086275 0.000000
0.160784 0.082353 0.000000
0.196078 0.078431 0.000000
0.239216 0.082353 0.000000
0.270588 0.090196 0.000000
0.290196 0.094118 0.000000
0.262745 0.125490 0.000000
0.282353 0.129412 0.000000
0.313725 0.133333 0.000000
0.349020 0.121569 0.000000
0.380392 0.109804 0.000000
0.431373 0.109804 0.000000
0.478431 0.129412 0.000000
0.517647 0.145098 0.000000
0.654902 0.098039 0.000000
0.713725 0.125490 0.000000
0.745098 0.101961 0.000000
0.823529 0.125490 0.000000
0.874510 0.137255 0.000000
0.901961 0.152941 0.000000
0.949020 0.203922 0.015686
0.980392 0.235294 0.039216
0.094118 0.078431 0.043137
0.047059 0.070588 0.031373
0.011765 0.074510 0.035294
0.019608 0.078431 0.050980
0.054902 0.062745 0.050980
0.066667 0.050980 0.039216
0.070588 0.070588 0.039216
0.074510 0.098039 0.050980
0.113725 0.109804 0.031373
0.129412 0.109804 0.031373
0.156863 0.105882 0.031373
0.188235 0.109804 0.015686
0.223529 0.105882 0.011765
0.258824 0.101961 0.003922
0.282353 0.101961 0.000000
0.298039 0.101961 0.000000
0.368627 0.109804 0.047059
0.396078 0.113725 0.054902
0.427451 0.117647 0.050980
0.462745 0.105882 0.031373
0.494118 0.094118 0.007843
0.541176 0.094118 0.000000
0.584314 0.105882 0.011765
0.623529 0.121569 0.023529
0.705882 0.137255 0.000000
0.725490 0.149020 0.000000
0.772549 0.156863 0.000000
0.843137 0.156863 0.000000
0.917647 0.149020 0.000000
0.949020 0.172549 0.000000
0.960784 0.227451 0.011765
0.960784 0.286275 0.043137
0.125490 0.117647 0.027451
0.074510 0.113725 0.015686
0.023529 0.117647 0.015686
0.027451 0.121569 0.027451
0.050980 0.101961 0.023529
0.066667 0.086275 0.007843
0.078431 0.094118 0.003922
0.086275 0.121569 0.015686
0.121569 0.156863 0.000000
0.133333 0.156863 0.000000
0.164706 0.152941 0.000000
0.196078 0.156863 0.000000
0.231373 0.152941 0.000000
0.266667 0.149020 0.000000
0.290196 0.149020 0.000000
0.305882 0.149020 0.000000
0.392157 0.145098 0.078431
0.407843 0.145098 0.070588
0.439216 0.149020 0.043137
0.482353 0.152941 0.011765
0.537255 0.164706 0.000000
0.592157 0.176471 0.000000
0.635294 0.192157 0.000000
0.662745 0.200000 0.000000
0.745098 0.203922 0.000000
0.745098 0.196078 0.000000
0.792157 0.203922 0.000000
0.878431 0.211765 0.000000
0.945098 0.203922 0.000000
0.968627 0.215686 0.000000
0.976471 0.266667 0.000000
0.980392 0.329412 0.031373
0.121569 0.164706 0.047059
0.050980 0.149020 0.023529
0.000000 0.141176 0.011765
0.000000 0.149020 0.027451
0.039216 0.141176 0.035294
0.050980 0.121569 0.019608
0.058824 0.121569 0.007843
0.054902 0.137255 0.007843
0.125490 0.160784 0.039216
0.137255 0.156863 0.031373
0.164706 0.152941 0.023529
0.192157 0.152941 0.015686
0.239216 0.160784 0.015686
0.286275 0.168627 0.019608
0.321569 0.184314 0.027451
0.345098 0.192157 0.031373
0.372549 0.176471 0.078431
0.392157 0.176471 0.058824
0.431373 0.180392 0.043137
0.490196 0.188235 0.023529
0.560784 0.200000 0.000000
0.627451 0.215686 0.000000
0.682353 0.231373 0.000000
0.717647 0.239216 0.000000
0.776471 0.223529 0.015686
0.803922 0.250980 0.039216
0.854902 0.262745 0.047059
0.909804 0.243137 0.039216
0.956863 0.223529 0.023529
0.988235 0.239216 0.027451
1.000000 0.305882 0.062745
1.000000 0.364706 0.094118
0.156863 0.152941 0.031373
0.094118 0.156863 0.015686
0.039216 0.156863 0.015686
0.031373 0.152941 0.019608
0.066667 0.149020 0.027451
0.094118 0.145098 0.027451
0.090196 0.145098 0.007843
0.078431 0.149020 0.000000
0.109804 0.164706 0.027451
0.125490 0.164706 0.027451
0.145098 0.160784 0.015686
0.188235 0.168627 0.019608
0.235294 0.176471 0.015686
0.286275 0.188235 0.027451
0.329412 0.207843 0.035294
0.352941 0.219608 0.043137
0.384314 0.278431 0.070588
0.411765 0.266667 0.058824
0.462745 0.258824 0.031373
0.525490 0.247059 0.000000
0.603922 0.239216 0.000000
0.678431 0.239216 0.000000
0.737255 0.239216 0.000000
0.772549 0.243137 0.000000
0.788235 0.286275 0.000000
0.788235 0.286275 0.000000
0.823529 0.301961 0.000000
0.898039 0.309804 0.011765
0.945098 0.305882 0.011765
0.956863 0.317647 0.007843
0.956863 0.376471 0.031373
0.956863 0.435294 0.062745
0.168627 0.156863 0.019608
0.101961 0.156863 0.015686
0.039216 0.160784 0.000000
0.031373 0.156863 0.011765
0.058824 0.160784 0.023529
0.090196 0.156863 0.015686
0.078431 0.160784 0.007843
0.058824 0.164706 0.000000
0.121569 0.207843 0.027451
0.133333 0.200000 0.023529
0.152941 0.200000 0.019608
0.192157 0.200000 0.015686
0.239216 0.207843 0.023529
0.282353 0.219608 0.027451
0.325490 0.231373 0.043137
0.349020 0.239216 0.050980
0.474510 0.286275 0.035294
0.498039 0.290196 0.031373
0.541176 0.294118 0.023529
0.600000 0.298039 0.023529
0.662745 0.301961 0.015686
0.721569 0.305882 0.007843
0.768627 0.309804 0.007843
0.792157 0.309804 0.003922
0.862745 0.301961 0.003922
0.898039 0.301961 0.007843
0.980392 0.329412 0.039216
0.996078 0.305882 0.011765
0.996078 0.301961 0.000000
1.000000 0.345098 0.015686
1.000000 0.388235 0.031373
1.000000 0.454902 0.082353
0.156863 0.176471 0.058824
0.054902 0.215686 0.058824
0.003922 0.227451 0.066667
0.039216 0.196078 0.062745
0.050980 0.180392 0.058824
0.023529 0.203922 0.058824
0.023529 0.211765 0.047059
0.066667 0.203922 0.047059
0.101961 0.219608 0.023529
0.105882 0.223529 0.019608
0.121569 0.227451 0.011765
0.145098 0.239216 0.011765
0.196078 0.250980 0.011765
0.250980 0.266667 0.027451
0.301961 0.278431 0.035294
0.333333 0.290196 0.047059
0.411765 0.321569 0.058824
0.443137 0.325490 0.050980
0.509804 0.329412 0.035294
0.592157 0.337255 0.023529
0.674510 0.345098 0.007843
0.756863 0.352941 0.000000
0.819608 0.356863 0.000000
0.854902 0.356863 0.000000
0.858824 0.341176 0.007843
0.894118 0.345098 0.011765
0.964706 0.356863 0.035294
0.988235 0.333333 0.015686
1.000000 0.345098 0.023529
1.000000 0.368627 0.023529
1.000000 0.396078 0.035294
1.000000 0.490196 0.113725
0.149020 0.192157 0.023529
0.050980 0.235294 0.019608
0.000000 0.247059 0.007843
0.031373 0.215686 0.000000
0.050980 0.207843 0.000000
0.019608 0.231373 0.003922
0.023529 0.239216 0.011765
0.066667 0.223529 0.015686
0.168627 0.203922 0.000000
0.172549 0.200000 0.000000
0.188235 0.203922 0.003922
0.215686 0.207843 0.015686
0.262745 0.223529 0.023529
0.313725 0.235294 0.027451
0.364706 0.250980 0.031373
0.392157 0.254902 0.027451
0.439216 0.368627 0.039216
0.474510 0.372549 0.043137
0.533333 0.376471 0.043137
0.611765 0.372549 0.047059
0.701961 0.380392 0.050980
0.780392 0.380392 0.047059
0.839216 0.384314 0.043137
0.874510 0.388235 0.050980
0.901961 0.443137 0.066667
0.921569 0.439216 0.070588
0.952941 0.431373 0.066667
0.980392 0.419608 0.058824
0.996078 0.403922 0.054902
1.000000 0.384314 0.035294
0.996078 0.372549 0.015686
0.988235 0.364706 0.007843
0.011765 0.219608 0.000000
0.007843 0.223529 0.000000
0.000000 0.227451 0.000000
0.000000 0.231373 0.003922
0.000000 0.231373 0.003922
0.011765 0.227451 0.003922
0.027451 0.227451 0.007843
0.035294 0.219608 0.007843
0.019608 0.231373 0.027451
0.031373 0.227451 0.019608
0.050980 0.223529 0.015686
0.086275 0.223529 0.011765
0.129412 0.227451 0.011765
0.168627 0.235294 0.023529
0.211765 0.247059 0.031373
0.235294 0.254902 0.043137
0.282353 0.266667 0.000000
0.313725 0.282353 0.000000
0.364706 0.301961 0.007843
0.423529 0.313725 0.023529
0.482353 0.329412 0.019608
0.552941 0.352941 0.043137
0.615686 0.388235 0.066667
0.666667 0.411765 0.090196
0.811765 0.419608 0.000000
0.894118 0.482353 0.031373
0.847059 0.400000 0.000000
0.929412 0.450980 0.023529
0.956863 0.466667 0.043137
0.945098 0.474510 0.035294
0.917647 0.470588 0.023529
1.000000 0.568627 0.117647
0.054902 0.290196 0.000000
0.000000 0.278431 0.000000
0.000000 0.270588 0.000000
0.000000 0.262745 0.000000
0.000000 0.247059 0.000000
0.000000 0.239216 0.000000
0.000000 0.262745 0.000000
0.003922 0.294118 0.000000
0.011765 0.239216 0.007843
0.031373 0.243137 0.007843
0.058824 0.247059 0.011765
0.098039 0.250980 0.003922
0.141176 0.254902 0.003922
0.180392 0.262745 0.007843
0.215686 0.262745 0.003922
0.227451 0.262745 0.000000
0.282353 0.262745 0.000000
0.325490 0.290196 0.000000
0.396078 0.321569 0.000000
0.466667 0.356863 0.000000
0.541176 0.376471 0.000000
0.607843 0.403922 0.007843
0.678431 0.435294 0.039216
0.717647 0.462745 0.062745
0.823529 0.490196 0.000000
0.811765 0.486275 0.000000
0.839216 0.490196 0.000000
0.909804 0.494118 0.023529
0.952941 0.486275 0.023529
0.949020 0.482353 0.019608
0.937255 0.537255 0.050980
0.933333 0.600000 0.094118
0.094118 0.305882 0.062745
0.027451 0.298039 0.043137
0.000000 0.290196 0.031373
0.000000 0.286275 0.031373
0.000000 0.262745 0.023529
0.000000 0.247059 0.011765
0.007843 0.262745 0.011765
0.019608 0.290196 0.027451
0.000000 0.270588 0.019608
0.000000 0.270588 0.015686
0.035294 0.274510 0.011765
0.074510 0.282353 0.015686
0.117647 0.286275 0.007843
0.156863 0.286275 0.007843
0.184314 0.294118 0.003922
0.203922 0.298039 0.007843
0.294118 0.321569 0.000000
0.329412 0.337255 0.000000
0.384314 0.364706 0.000000
0.466667 0.403922 0.000000
0.545098 0.443137 0.000000
0.627451 0.482353 0.000000
0.678431 0.509804 0.000000
0.713725 0.521569 0.000000
0.882353 0.580392 0.023529
0.854902 0.560784 0.000000
0.874510 0.560784 0.007843
0.941176 0.572549 0.039216
0.968627 0.560784 0.039216
0.941176 0.537255 0.023529
0.913725 0.588235 0.047059
0.925490 0.662745 0.101961
0.145098 0.325490 0.074510
0.066667 0.301961 0.050980
0.000000 0.290196 0.027451
0.000000 0.282353 0.035294
0.019608 0.270588 0.035294
0.039216 0.258824 0.019608
0.043137 0.262745 0.015686
0.043137 0.282353 0.011765
0.000000 0.290196 0.000000
0.007843 0.290196 0.000000
0.027451 0.290196 0.000000
0.070588 0.294118 0.000000
0.117647 0.301961 0.000000
0.172549 0.317647 0.003922
0.211765 0.337255 0.011765
0.235294 0.345098 0.015686
0.305882 0.345098 0.000000
0.337255 0.364706 0.000000
0.400000 0.400000 0.007843
0.486275 0.443137 0.019608
0.576471 0.490196 0.023529
0.654902 0.533333 0.035294
0.721569 0.564706 0.039216
0.752941 0.584314 0.043137
0.952941 0.580392 0.015686
0.968627 0.596078 0.039216
0.992157 0.596078 0.047059
1.000000 0.556863 0.027451
1.000000 0.525490 0.011765
1.000000 0.537255 0.019608
1.000000 0.600000 0.070588
1.000000 0.662745 0.109804
0.101961 0.349020 0.031373
0.039216 0.345098 0.015686
0.000000 0.341176 0.007843
0.000000 0.337255 0.007843
0.000000 0.329412 0.011765
0.019608 0.321569 0.007843
0.007843 0.321569 0.000000
0.000000 0.317647 0.000000
0.000000 0.309804 0.007843
0.007843 0.309804 0.003922
0.035294 0.313725 0.000000
0.078431 0.317647 0.003922
0.133333 0.337255 0.011765
0.184314 0.356863 0.023529
0.235294 0.376471 0.035294
0.258824 0.388235 0.047059
0.301961 0.431373 0.000000
0.337255 0.447059 0.000000
0.415686 0.474510 0.000000
0.517647 0.505882 0.000000
0.627451 0.541176 0.003922
0.725490 0.576471 0.015686
0.800000 0.596078 0.015686
0.843137 0.611765 0.015686
0.941176 0.658824 0.000000
0.933333 0.654902 0.000000
0.949020 0.654902 0.000000
0.984314 0.647059 0.007843
1.000000 0.627451 0.003922
0.988235 0.627451 0.000000
0.960784 0.674510 0.027451
0.941176 0.729412 0.058824
0.137255 0.380392 0.054902
0.074510 0.380392 0.043137
0.007843 0.376471 0.031373
0.000000 0.372549 0.031373
0.015686 0.364706 0.035294
0.035294 0.364706 0.031373
0.027451 0.356863 0.011765
0.003922 0.360784 0.000000
0.027451 0.364706 0.023529
0.039216 0.364706 0.019608
0.066667 0.356863 0.015686
0.098039 0.356863 0.011765
0.145098 0.364706 0.023529
0.196078 0.376471 0.031373
0.231373 0.388235 0.043137
0.254902 0.396078 0.050980
0.290196 0.447059 0.070588
0.325490 0.470588 0.066667
0.388235 0.509804 0.050980
0.474510 0.560784 0.035294
0.572549 0.611765 0.027451
0.650980 0.662745 0.007843
0.721569 0.701961 0.000000
0.752941 0.721569 0.000000
0.878431 0.733333 0.000000
0.913725 0.733333 0.000000
0.976471 0.752941 0.000000
0.964706 0.729412 0.000000
0.941176 0.705882 0.000000
0.925490 0.729412 0.000000
0.901961 0.752941 0.000000
0.921569 0.807843 0.015686
0.133333 0.411765 0.035294
0.031373 0.450980 0.035294
0.000000 0.458824 0.039216
0.003922 0.419608 0.027451
0.019608 0.400000 0.019608
0.000000 0.423529 0.015686
0.000000 0.427451 0.003922
0.027451 0.415686 0.000000
0.027451 0.423529 0.000000
0.027451 0.423529 0.000000
0.039216 0.431373 0.000000
0.070588 0.443137 0.000000
0.117647 0.454902 0.000000
0.172549 0.466667 0.000000
0.227451 0.482353 0.000000
0.250980 0.490196 0.000000
0.254902 0.552941 0.000000
0.298039 0.564706 0.000000
0.372549 0.588235 0.000000
0.474510 0.615686 0.000000
0.584314 0.654902 0.000000
0.690196 0.686275 0.000000
0.764706 0.705882 0.000000
0.811765 0.721569 0.000000
0.870588 0.760784 0.000000
0.901961 0.760784 0.000000
0.952941 0.772549 0.000000
0.956863 0.741176 0.000000
0.949020 0.741176 0.000000
0.925490 0.741176 0.000000
0.886275 0.752941 0.000000
0.937255 0.831373 0.066667
0.141176 0.447059 0.015686
0.039216 0.486275 0.007843
0.000000 0.501961 0.000000
0.023529 0.470588 0.000000
0.047059 0.458824 0.000000
0.011765 0.482353 0.000000
0.011765 0.494118 0.003922
0.054902 0.478431 0.007843
0.000000 0.490196 0.000000
0.000000 0.490196 0.000000
0.007843 0.490196 0.000000
0.039216 0.494118 0.003922
0.082353 0.509804 0.011765
0.133333 0.521569 0.015686
0.184314 0.537255 0.019608
0.215686 0.541176 0.015686
0.270588 0.576471 0.047059
0.309804 0.588235 0.039216
0.388235 0.619608 0.031373
0.494118 0.654902 0.011765
0.600000 0.690196 0.000000
0.705882 0.725490 0.000000
0.784314 0.756863 0.000000
0.827451 0.772549 0.000000
0.894118 0.760784 0.003922
0.909804 0.756863 0.007843
0.933333 0.760784 0.003922
0.956863 0.760784 0.003922
0.964706 0.760784 0.000000
0.964706 0.756863 0.000000
0.952941 0.752941 0.000000
0.937255 0.749020 0.000000
0.152941 0.619608 0.290196
0.145098 0.623529 0.290196
0.141176 0.627451 0.290196
0.137255 0.635294 0.294118
0.145098 0.631373 0.294118
0.156863 0.623529 0.294118
0.168627 0.623529 0.298039
0.180392 0.619608 0.298039
0.325490 0.607843 0.286275
0.341176 0.607843 0.282353
0.364706 0.607843 0.274510
0.407843 0.611765 0.278431
0.458824 0.623529 0.286275
0.509804 0.643137 0.301961
0.560784 0.662745 0.313725
0.584314 0.674510 0.329412
0.811765 0.725490 0.329412
0.835294 0.737255 0.341176
0.882353 0.745098 0.345098
0.913725 0.741176 0.329412
0.941176 0.713725 0.294118
0.956863 0.690196 0.262745
0.988235 0.682353 0.254902
1.000000 0.682353 0.243137
0.937255 0.654902 0.270588
1.000000 0.698039 0.313725
0.976471 0.635294 0.262745
1.000000 0.662745 0.286275
1.000000 0.670588 0.282353
1.000000 0.666667 0.266667
1.000000 0.682353 0.266667
1.000000 0.745098 0.321569
0.427451 0.674510 0.356863
0.368627 0.662745 0.337255
0.313725 0.658824 0.329412
0.313725 0.647059 0.329412
0.325490 0.627451 0.321569
0.329412 0.607843 0.301961
0.329412 0.623529 0.298039
0.325490 0.654902 0.309804
0.356863 0.658824 0.258824
0.368627 0.662745 0.258824
0.411765 0.674510 0.262745
0.458824 0.682353 0.270588
0.513725 0.701961 0.274510
0.556863 0.709804 0.282353
0.596078 0.721569 0.286275
0.615686 0.725490 0.290196
0.717647 0.776471 0.364706
0.764706 0.800000 0.388235
0.815686 0.823529 0.403922
0.870588 0.827451 0.403922
0.901961 0.815686 0.380392
0.929412 0.800000 0.356863
0.956863 0.796078 0.349020
0.976471 0.800000 0.349020
0.964706 0.752941 0.325490
0.960784 0.749020 0.321569
0.988235 0.752941 0.321569
1.000000 0.741176 0.321569
1.000000 0.717647 0.309804
1.000000 0.717647 0.301961
1.000000 0.760784 0.317647
1.000000 0.815686 0.341176
0.482353 0.729412 0.321569
0.415686 0.717647 0.301961
0.360784 0.721569 0.301961
0.356863 0.721569 0.305882
0.368627 0.701961 0.298039
0.384314 0.686275 0.286275
0.396078 0.698039 0.282353
0.403922 0.725490 0.294118
0.380392 0.713725 0.345098
0.400000 0.717647 0.345098
0.431373 0.729412 0.345098
0.482353 0.741176 0.356863
0.533333 0.752941 0.364706
0.584314 0.768627 0.368627
0.615686 0.776471 0.368627
0.639216 0.784314 0.380392
0.752941 0.850980 0.392157
0.780392 0.858824 0.415686
0.827451 0.862745 0.435294
0.874510 0.870588 0.454902
0.917647 0.858824 0.462745
0.945098 0.843137 0.470588
0.964706 0.819608 0.462745
0.972549 0.811765 0.458824
1.000000 0.796078 0.392157
0.988235 0.780392 0.372549
1.000000 0.780392 0.368627
1.000000 0.780392 0.384314
1.000000 0.756863 0.368627
1.000000 0.745098 0.349020
1.000000 0.788235 0.364706
1.000000 0.854902 0.407843
0.474510 0.831373 0.372549
0.400000 0.811765 0.345098
0.333333 0.800000 0.329412
0.329412 0.807843 0.341176
0.356863 0.800000 0.345098
0.376471 0.784314 0.333333
0.376471 0.788235 0.321569
0.372549 0.803922 0.321569
0.423529 0.788235 0.329412
0.439216 0.788235 0.325490
0.466667 0.792157 0.329412
0.513725 0.803922 0.329412
0.568627 0.819608 0.341176
0.627451 0.839216 0.360784
0.670588 0.862745 0.372549
0.698039 0.870588 0.384314
0.796078 0.898039 0.466667
0.819608 0.905882 0.482353
0.862745 0.913725 0.501961
0.905882 0.913725 0.517647
0.941176 0.909804 0.525490
0.964706 0.890196 0.529412
