public/textures/WoddenFloor/OnlineLUTCreator.CUBE
#Generated by wwww.onlinelutcreator.com 
LUT_3D_SIZE 5 
DOMAIN_MIN 0.000000 0.000000 0.000000
DOMAIN_MAX 0.903226 0.903226 0.903226
0.015686 0.000000 0.000000
0.035294 0.000000 0.000000
0.243137 0.000000 0.043137
0.533333 0.000000 0.000000
0.843137 0.000000 0.000000
0.156863 0.035294 0.023529
0.078431 0.062745 0.015686
0.258824 0.133333 0.000000
0.505882 0.125490 0.000000
0.941176 0.074510 0.003922
0.156863 0.176471 0.058824
0.066667 0.203922 0.047059
0.301961 0.278431 0.035294
0.756863 0.352941 0.000000
1.000000 0.345098 0.023529
0.137255 0.380392 0.054902
0.003922 0.360784 0.000000
0.231373 0.388235 0.043137
0.650980 0.662745 0.007843
0.941176 0.705882 0.000000
0.576471 0.862745 0.400000
0.466667 0.854902 0.356863
0.694118 0.898039 0.400000
0.972549 0.945098 0.592157
1.000000 0.866667 0.564706
0.007843 0.011765 0.000000
0.031373 0.011765 0.000000
0.223529 0.043137 0.000000
0.443137 0.003922 0.000000
0.627451 0.007843 0.000000
0.090196 0.090196 0.058824
0.007843 0.121569 0.050980
0.188235 0.168627 0.050980
0.360784 0.196078 0.031373
0.807843 0.239216 0.015686
0.200000 0.180392 0.054902
0.098039 0.196078 0.031373
0.301961 0.278431 0.035294
0.650980 0.380392 0.000000
0.976471 0.345098 0.000000
0.078431 0.364706 0.011765
0.003922 0.403922 0.011765
0.243137 0.400000 0.023529
0.756863 0.615686 0.027451
0.992157 0.670588 0.000000
0.619608 0.850980 0.521569
0.498039 0.843137 0.501961
0.745098 0.882353 0.568627
1.000000 0.913725 0.701961
1.000000 0.874510 0.631373
0.015686 0.043137 0.156863
0.039216 0.043137 0.164706
0.200000 0.011765 0.160784
0.372549 0.054902 0.184314
0.552941 0.015686 0.180392
0.160784 0.090196 0.043137
0.035294 0.160784 0.070588
0.250980 0.168627 0.149020
0.403922 0.172549 0.117647
0.800000 0.117647 0.011765
0.176471 0.219608 0.203922
0.082353 0.262745 0.223529
0.305882 0.266667 0.258824
0.662745 0.321569 0.282353
0.968627 0.301961 0.211765
0.129412 0.431373 0.219608
0.043137 0.470588 0.243137
0.203922 0.450980 0.235294
0.717647 0.654902 0.349020
1.000000 0.674510 0.298039
0.800000 0.843137 0.686275
0.698039 0.866667 0.749020
0.784314 0.882353 0.725490
0.984314 0.952941 0.772549
0.996078 0.921569 0.796078
0.000000 0.074510 0.431373
0.000000 0.082353 0.439216
0.101961 0.019608 0.415686
0.427451 0.000000 0.435294
0.529412 0.003922 0.392157
0.145098 0.141176 0.298039
0.082353 0.152941 0.333333
0.254902 0.137255 0.333333
0.400000 0.168627 0.380392
0.690196 0.117647 0.301961
0.164706 0.203922 0.341176
0.011765 0.262745 0.435294
0.211765 0.239216 0.419608
0.549020 0.301961 0.486275
0.874510 0.349020 0.580392
0.188235 0.600000 0.478431
0.031373 0.647059 0.564706
0.215686 0.694118 0.596078
0.713725 0.654902 0.635294
1.000000 0.686275 0.643137
0.678431 0.878431 0.890196
0.537255 0.921569 0.972549
0.768627 0.890196 0.960784
0.952941 0.933333 0.921569
1.000000 0.913725 0.929412
0.019608 0.062745 0.768627
0.019608 0.062745 0.768627
0.003922 0.000000 0.847059
0.396078 0.000000 0.666667
0.650980 0.023529 0.611765
0.035294 0.133333 0.690196
0.000000 0.200000 0.717647
0.003922 0.137255 0.729412
0.400000 0.019608 0.572549
0.749020 0.043137 0.576471
0.039216 0.145098 0.603922
0.062745 0.262745 0.713725
0.031373 0.207843 0.666667
0.545098 0.207843 0.737255
0.898039 0.270588 0.788235
0.000000 0.513725 0.737255
0.000000 0.623529 0.839216
0.027451 0.533333 0.850980
0.537255 0.556863 0.823529
0.964706 0.686275 0.952941
0.611765 0.909804 1.000000
0.388235 0.898039 0.992157
0.654902 0.874510 1.000000
0.909804 0.905882 0.976471
0.980392 0.937255 0.952941
